icons/Bell_2.svg

<svg width="24" height="24" viewBox="0 0 24 24" fill="none" xmlns="http://www.w3.org/2000/svg">
<path fill-rule="evenodd" clip-rule="evenodd" d="M12.75,4.79501c1.4364,0.17165 2.8096,0.82348 3.8738,1.76945c1.2495,1.11067 2.1266,2.6779 2.1266,4.43554c0,1.4127 0.0033,2.3934 0.1821,3.2451c0.1698,0.8089 0.503,1.5134 1.2149,2.3182c0.5303,0.5996 0.1886,1.6867 -0.7481,1.6867h-1.4836h-0.0264h-0.0265h-0.0533h-0.0267h-0.0269h-0.0269h-0.027h-0.0271h-0.0272h-0.0546h-0.0275h-0.0275h-0.0276h-0.0277h-0.0277h-0.0279h-0.0559h-0.0281h-0.0281h-0.0283h-0.0283h-0.0284h-0.0285h-0.0285h-0.0286h-0.0287h-0.0288h-0.0288h-0.0289h-0.029h-0.0291h-0.0291h-0.0292h-0.0587h-0.0294h-0.0295h-0.0295h-0.0296h-0.0297h-0.0298h-0.0298h-0.0299h-0.03h-0.03h-0.0301h-0.0301h-0.0303h-0.0303h-0.0303h-0.0304h-0.0305h-0.0305h-0.0306h-0.0307h-0.0307h-0.0307h-0.0309h-0.0309h-0.0309h-0.031h-0.0311h-0.0311h-0.0312h-0.0312h-0.0313h-0.0314h-0.0314h-0.0314h-0.0315h-0.0316h-0.0128c-0.1287,1.9545 -1.7547,3.5 -3.7418,3.5c-1.9871,0 -3.61316,-1.5455 -3.74181,-3.5h-0.14755h-0.48022h-0.46245h-0.22393h-0.02763h-0.02755h-0.05486h-0.0273h-0.02722h-0.02713h-0.02705h-0.81788h-0.02398h-0.02387h-0.02378h-0.02367h-0.02356h-0.02347h-0.02336h-0.02325h-0.02315h-0.02305h-0.02294h-0.02283h-0.02273h-0.02261h-0.02251h-0.02241h-0.17525h-0.0214h-0.02129h-0.02118h-0.02106h-0.02095h-0.02083h-0.02071h-0.0206h-0.02049h-0.02036h-0.02025h-0.02013h-0.02001h-0.01989h-0.01977h-0.01965h-0.01953h-0.01941h-0.01929h-0.01917h-0.01904h-0.01892h-0.01879h-0.01867h-0.01855h-0.01842h-0.01829h-0.01817h-0.07141h-0.01753h-0.0174h-0.01727h-0.01714h-0.01701h-0.01688h-0.01675h-0.01662c-0.95361,0 -1.26388,-1.1001 -0.74512,-1.6867c0.71182,-0.8047 1.0449,-1.5092 1.21463,-2.3181c0.17872,-0.8518 0.182,-1.8324 0.182,-3.2452c0,-1.75768 0.87725,-3.32491 2.1268,-4.43557c1.06407,-0.94579 2.43708,-1.59755 3.87322,-1.76933v-1.7951c0,-0.41421 0.3358,-0.75 0.75,-0.75c0.4142,0 0.75,0.33579 0.75,0.75zM12.0003,20.25c1.1581,0 2.1119,-0.875 2.2363,-2h-0.0153h-0.0335h-0.0335h-0.0336h-0.0336h-0.0336h-0.0337h-0.0336h-0.0337h-0.0338h-0.0337h-0.0338h-0.0338h-0.0338h-0.0338h-0.0339h-0.0339h-0.0339h-0.0339h-0.034h-0.0339h-0.034h-0.034h-0.034h-0.0341h-0.034h-0.0341h-0.0341h-0.0341h-0.0341h-0.0342h-0.0341h-0.0342h-0.0341h-0.0342h-0.0342h-0.0342h-0.0343h-0.0342h-0.0343h-0.0342h-0.0343h-0.0342h-0.0343h-0.0343h-0.0343h-0.0343h-0.0343h-0.2747h-0.5493h-0.5479h-0.2727h-0.034h-0.034h-0.0339h-0.034h-0.0339h-0.0339h-0.0339h-0.0339h-0.0338h-0.0339h-0.0338h-0.0338h-0.0675h-0.0337h-0.0336h-0.2685h-0.40488c0.12437,1.125 1.07818,2 2.23628,2zM17.4645,14.5533c-0.2142,-1.0207 -0.2142,-2.155 -0.2141,-3.4919v-0.0614c0,-1.24235 -0.6227,-2.42513 -1.6232,-3.31445c-1.0017,-0.89044 -2.3283,-1.43555 -3.6268,-1.43555c-1.2986,0 -2.6253,0.54512 -3.6271,1.43557c-1.00056,0.88934 -1.62332,2.07211 -1.62332,3.31443v0.063c0.00005,1.3361 0.0001,2.47 -0.21396,3.4902c-0.16415,0.7823 -0.45076,1.4903 -0.92885,2.1968h3.39312h6.00001h3.3932c-0.4781,-0.7065 -0.7647,-1.4144 -0.929,-2.1967z" fill="#002B51"/>
</svg>

<svg width="24" height="24" viewBox="0 0 24 24" fill="none" xmlns="http://www.w3.org/2000/svg">
<path fill-rule="evenodd" clip-rule="evenodd" d="M12.75 3C12.75 2.58579 12.4142 2.25 12 2.25C11.5858 2.25 11.25 2.58579 11.25 3V4.7951C9.81386 4.96688 8.44085 5.61864 7.37678 6.56443C6.12723 7.67509 5.24998 9.24232 5.24998 11C5.24998 12.4128 5.2467 13.3934 5.06798 14.2452C4.89825 15.0541 4.56517 15.7586 3.85335 16.5633C3.33459 17.1499 3.64486 18.25 4.59847 18.25H4.61509H4.63184H4.64872H4.66573H4.68287H4.70014H4.71754H4.73507H4.80648H4.82465H4.84294H4.86136H4.87991H4.89858H4.91737H4.93629H4.95533H4.9745H4.99379H5.0132H5.03273H5.05238H5.07215H5.09204H5.11205H5.13218H5.15243H5.17279H5.19328H5.21388H5.23459H5.25542H5.27637H5.29743H5.31861H5.3399H5.3613H5.53655H5.55896H5.58147H5.60408H5.62681H5.64964H5.67258H5.69563H5.71878H5.74203H5.76539H5.78886H5.81242H5.83609H5.85987H5.88374H5.90772H6.7256H6.75265H6.77978H6.807H6.8343H6.88916H6.91671H6.94434H7.16827H7.63072H8.11094H8.25849C8.38714 20.2045 10.0132 21.75 12.0003 21.75C13.9874 21.75 15.6134 20.2045 15.7421 18.25H15.7549H15.7865H15.818H15.8494H15.8808H15.9122H15.9435H15.9747H16.0059H16.037H16.0681H16.0991H16.13H16.1609H16.1918H16.2225H16.2532H16.2839H16.3145H16.345H16.3755H16.4059H16.4362H16.4665H16.4968H16.5269H16.557H16.587H16.617H16.6469H16.6767H16.7065H16.7362H16.7658H16.7953H16.8248H16.8542H16.9129H16.9421H16.9712H17.0003H17.0293H17.0582H17.087H17.1158H17.1445H17.1731H17.2016H17.2301H17.2585H17.2868H17.3151H17.3432H17.3713H17.4272H17.4551H17.4828H17.5105H17.5381H17.5656H17.5931H17.6477H17.6749H17.702H17.729H17.7559H17.7828H17.8095H17.8628H17.8893H17.9157H19.3993C20.336 18.25 20.6777 17.1629 20.1474 16.5633C19.4355 15.7585 19.1023 15.054 18.9325 14.2451C18.7537 13.3934 18.7504 12.4127 18.7504 11C18.7504 9.24236 17.8733 7.67513 16.6238 6.56446C15.5596 5.61849 14.1864 4.96666 12.75 4.79501V3ZM12.0003 20.25C13.1584 20.25 14.1122 19.375 14.2366 18.25H14.2213H14.1878H14.1543H14.1207H14.0871H14.0535H14.0198H13.9862H13.9525H13.9187H13.885H13.8512H13.8174H13.7836H13.7498H13.7159H13.682H13.6481H13.6142H13.5802H13.5463H13.5123H13.4783H13.4443H13.4102H13.3762H13.3421H13.308H13.2739H13.2398H13.2056H13.1715H13.1373H13.1032H13.069H13.0348H13.0006H12.9663H12.9321H12.8978H12.8636H12.8293H12.7951H12.7608H12.7265H12.6922H12.6579H12.6236H12.3489H11.7996H11.2517H10.979H10.945H10.911H10.8771H10.8431H10.8092H10.7753H10.7414H10.7075H10.6737H10.6398H10.606H10.5722H10.5047H10.471H10.4374H10.1689H9.76402C9.88839 19.375 10.8422 20.25 12.0003 20.25ZM18.3935 16.75H15.0003H9.00029H5.60717C6.08526 16.0435 6.37187 15.3355 6.53602 14.5532C6.75008 13.533 6.75003 12.3991 6.74998 11.063L6.74998 11C6.74998 9.75768 7.37274 8.57491 8.3733 7.68557C9.3751 6.79512 10.7018 6.25 12.0004 6.25C13.2989 6.25 14.6255 6.79511 15.6272 7.68555C16.6277 8.57487 17.2504 9.75765 17.2504 11L17.2504 11.0614C17.2503 12.3983 17.2503 13.5326 17.4645 14.5533C17.6288 15.3356 17.9154 16.0435 18.3935 16.75Z" fill="#002B51"/>
</svg>
